timer-lock-outline.svg

<svg fill="currentColor" viewBox="0 0 24 24"><path d="M11 8h2v6h-2zm2 11.92c-.33.05-.66.08-1 .08-3.87 0-7-3.13-7-7s3.13-7 7-7c2.82 0 5.24 1.67 6.35 4.06.21-.02.43-.06.65-.06.55 0 1.07.11 1.57.28a9 9 0 0 0-1.54-2.89l1.42-1.42c-.45-.51-.9-.97-1.41-1.41L17.62 6c-1.55-1.26-3.5-2-5.62-2a9 9 0 0 0 0 18c.42 0 .83-.04 1.24-.09-.15-.38-.24-.79-.24-1.21zM15 1H9v2h6zm8 16.3v3.5c0 .6-.6 1.2-1.3 1.2h-5.5c-.6 0-1.2-.6-1.2-1.3v-3.5c0-.6.6-1.2 1.2-1.2v-1.5c0-1.4 1.4-2.5 2.8-2.5s2.8 1.1 2.8 2.5V16c.6 0 1.2.6 1.2 1.3m-2.5-2.8c0-.8-.7-1.3-1.5-1.3s-1.5.5-1.5 1.3V16h3z"/></svg>

<svg  viewBox="0 0 24 24" fill="currentColor"><path  d="M11 8H13V14H11V8M13 19.92C12.67 19.97 12.34 20 12 20C8.13 20 5 16.87 5 13S8.13 6 12 6C14.82 6 17.24 7.67 18.35 10.06C18.56 10.04 18.78 10 19 10C19.55 10 20.07 10.11 20.57 10.28C20.23 9.22 19.71 8.24 19.03 7.39L20.45 5.97C20 5.46 19.55 5 19.04 4.56L17.62 6C16.07 4.74 14.12 4 12 4C7.03 4 3 8.03 3 13S7.03 22 12 22C12.42 22 12.83 21.96 13.24 21.91C13.09 21.53 13 21.12 13 20.7V19.92M15 1H9V3H15V1M23 17.3V20.8C23 21.4 22.4 22 21.7 22H16.2C15.6 22 15 21.4 15 20.7V17.2C15 16.6 15.6 16 16.2 16V14.5C16.2 13.1 17.6 12 19 12S21.8 13.1 21.8 14.5V16C22.4 16 23 16.6 23 17.3M20.5 14.5C20.5 13.7 19.8 13.2 19 13.2S17.5 13.7 17.5 14.5V16H20.5V14.5Z"/></svg>
